X: 4461
T: Bonnie Kate
R: reel
M: 4/4
K: Dmajor
dB|:AFdB ABAF|DFAF E2 EB|AFAd BGBd|cABc dcdB|
AFdB ABAF|DFAF E2 EB|AFAd BGBd|cABc defg:|
|:a2fd fafd|gfed cdef|gfef gbag|fgec defg|
a2fd fafd|gfed cdef|gfef gbag|1 faec dcdB:|2 faec d3 z||

